X:27
T:Shepherd's Hey
O:English
M:4/4
L:1/8
Q:150
K:D
fgafg4|fgafe4|fgafg2fg|a2A2d4:|
|:agfa gfeg|fedfe4|dcde fefg|a2A2d4:|
|:afaf bgbg|afafe4|dfeg fagb|a2A2d4:|
